src/lib/packages/icons/src/assets/filled/volume-high-slash.svg

<svg width="24" height="24" viewBox="0 0 24 24" fill="none" xmlns="http://www.w3.org/2000/svg">
<path d="M13 15.7241V19.3301C13 20.7501 11.34 21.5201 10.25 20.6001L8.95801 19.501C8.82401 19.387 8.81594 19.1841 8.93994 19.0601L12.488 15.512C12.677 15.323 13 15.4571 13 15.7241ZM18.455 10.0401C18.335 9.64506 17.923 9.42199 17.517 9.54299C17.121 9.66499 16.899 10.084 17.021 10.48C17.588 12.328 17.085 14.332 15.708 15.71C15.415 16.003 15.415 16.478 15.708 16.771C15.854 16.917 16.046 16.991 16.238 16.991C16.43 16.991 16.6219 16.918 16.7679 16.771C18.5399 14.999 19.187 12.4201 18.455 10.0401ZM21.436 6.85891C21.238 6.49591 20.784 6.36301 20.417 6.56301C20.055 6.76201 19.922 7.21808 20.121 7.58108C22.077 11.1451 21.426 15.6511 18.538 18.5391C18.245 18.8321 18.245 19.3071 18.538 19.6001C18.684 19.7461 18.876 19.8201 19.068 19.8201C19.26 19.8201 19.452 19.7471 19.598 19.6001C22.955 16.2431 23.711 11.0039 21.436 6.85891ZM21.53 2.46999C21.237 2.17699 20.762 2.17699 20.469 2.46999L12.999 9.93996V4.66995C12.999 3.24995 11.339 2.47993 10.249 3.39993L6.55896 6.53005C6.19896 6.83005 5.73904 7.00002 5.26904 7.00002H3.49902C2.66902 7.00002 1.99902 7.67002 1.99902 8.50002V15.5C1.99902 16.33 2.66902 17 3.49902 17H5.26904C5.46604 17 5.65895 17.0351 5.84595 17.0921L2.46899 20.469C2.17599 20.762 2.17599 21.2371 2.46899 21.5301C2.61499 21.6761 2.80702 21.75 2.99902 21.75C3.19102 21.75 3.38305 21.6771 3.52905 21.5301L21.5291 3.53005C21.8231 3.23705 21.823 2.76299 21.53 2.46999Z" fill="currentColor"/>
</svg>

<svg xmlns="http://www.w3.org/2000/svg" width="24" height="24" fill="none"><path fill="currentColor" d="M13 15.724v3.606c0 1.42-1.66 2.19-2.75 1.27l-1.292-1.099a.3.3 0 0 1-.018-.44l3.548-3.549a.3.3 0 0 1 .512.212Zm5.455-5.684a.75.75 0 1 0-1.434.44 5.221 5.221 0 0 1-1.313 5.23.75.75 0 0 0 1.06 1.061 6.712 6.712 0 0 0 1.687-6.73Zm2.981-3.181a.75.75 0 0 0-1.315.722c1.956 3.564 1.305 8.07-1.583 10.958a.75.75 0 0 0 1.06 1.061c3.357-3.357 4.113-8.596 1.838-12.741Zm.094-4.389a.75.75 0 0 0-1.061 0l-7.47 7.47V4.67c0-1.42-1.66-2.19-2.75-1.27l-3.69 3.13c-.36.3-.82.47-1.29.47h-1.77c-.83 0-1.5.67-1.5 1.5v7c0 .83.67 1.5 1.5 1.5h1.77c.197 0 .39.035.577.092L2.469 20.47a.75.75 0 0 0 1.06 1.061l18-18a.748.748 0 0 0 .001-1.06Z"/></svg>
